src/main/resources/icons/AllIcons/actions/copy.svg

<svg xmlns="http://www.w3.org/2000/svg" width="16" height="16" viewBox="0 0 16 16"><rect id="frame" width="16" height="16" fill="none"/><g fill="#6E6E6E" fill-rule="evenodd"><path d="M11 3H4v8H2V1h9v2z"/><path d="M5 4h9v10H5V4zm2 2v1h5V6H7zm0 4v1h5v-1H7zm0-2v1h5V8H7z"/></g></svg>

<!-- Copyright 2000-2021 JetBrains s.r.o. Use of this source code is governed by the Apache 2.0 license that can be found in the LICENSE file. -->
<svg xmlns="http://www.w3.org/2000/svg" width="16" height="16" viewBox="0 0 16 16">
  <g fill="none" fill-rule="evenodd">
    <path fill="#6E6E6E" d="M11,3 L4,3 L4,11 L2,11 L2,1 L11,1 L11,3 Z"/>
    <path fill="#6E6E6E" d="M5,4 L14,4 L14,14 L5,14 L5,4 Z M7,6 L7,7 L12,7 L12,6 L7,6 Z M7,10 L7,11 L12,11 L12,10 L7,10 Z M7,8 L7,9 L12,9 L12,8 L7,8 Z"/>
  </g>
</svg>
